X:1
T:Star Spangled Banner Experimental
T:Star Spangled Banner Experimental
%%score { 1 | 2 }
L:1/8
M:3/4
K:Bb
V:1 treble nm="Harp" snm="Hrp."
V:2 bass 
V:1
 z4 F>D |"Bb" B,2 D2"F" F2 |"Gm" !arpeggio![B,DGB]4"D7" [Dd]>[Dc] | %3
w: Oh *|Say can you|see by the|
"Gm" !arpeggio![DB]2 D2"C7" [C=E]2 |"F" !arpeggio![F,A,CF]4 FF |"Bb" !arpeggio![Fd]3 [Fc] [FB]2 | %6
w: dawns ear- ly|light, what so|proud- ly we|
"F" [FA]4 [FG][FA] |"Bb" [FB]2 B2 F2 | D2 B,2 F>D |"Bb" B,2 D2"F" F2 | %10
w: hailed, at the|twi- lights last|gleam- ing whose broad|stripes and bright|
"Gm" !arpeggio![B,DGB]4"D7" [Dd]>[Dc] |"Gm" !arpeggio![DB]2 D2"C7" [C=E]2 | %12
w: stars, thro' the|per- il- ous|
"F" !arpeggio![A,CF]4 FF |"Bb" [Fd]3 [Fc] [FB]2 |"F" !arpeggio![A,CFA]4 [FG][FA] | %15
w: fight, o'er the|ram- parts we|watched were so|
"Bb" [FB]2 B2 F2 | D2 B,2"C8ve" [Bd][Bd] | !arpeggio![DFBd]2 [ce]2 [df]2 | !arpeggio![Bdf]6 | %19
w: gal- lant- ly|stream- ing? and the|rock- ets red|glare|
 [ce][Bd] !arpeggio![FAc]2 [Bd]2 | [ce]2 [ce]4 | z4 [Fe]2 |"Bb" [Fd]3 [Fc] [FB]2 | %23
w: the bombs burst- ing|in air,|Gave|proof thro' the|
"F" [FA]4 [FG]>[FA] |"Bb" [FB]2 D2"C7" [C=E]2 |"F" !arpeggio![A,CF]4 FF |"Bb" [DB]2 [EB]2 [FB]A | %27
w: night that our|flag was still|there. oh *|say does that- *|
"Eb" [EG]2 [EG]2"G7" [FG]2 |"Cm" [Ec]2 [Ee][Fd] [Gc]B |"Bb" [FB]2"F" [FA]2 FF | %30
w: Star Span- gled|ban- ner * yet *|wave, * o'er *|
"Bb" [FB]3 [Fc] [Fd][Be] | !arpeggio![FBf]2 [bd'f']2"C7" [=EB][Ec] |"Bb" [Fd]3 [Ge]"F7" [Ec]2 | %33
w: Land- * of the|free, * and the|home of the|
"Bb" !arpeggio![DFB]6 | z6 | z6 | z6 | z6 | z6 |] %39
w: brave?||||||
V:2
 z4 F,>D, | B,,2 D,2 F,2 | !arpeggio![G,,B,,D,G,]6 | !arpeggio![G,,B,,D,G,]6 | %4
 !arpeggio![F,,A,,C,F,]6 | !arpeggio![B,,D,F,B,]6 | !arpeggio![F,,A,,C,F,]4 [D,D][C,C] | %7
 [B,,B,]2 B,2 F,2 | D,2 B,,2 F,>D, | B,,2 D,2 F,2 | !arpeggio![G,,B,,D,G,]6 | %11
 !arpeggio![G,,B,,D,G,]6 | !arpeggio![F,,A,,C,F,]6 | B,,D, F,[C,A,] [D,B,]2 | %14
 !arpeggio![F,,A,,C,F,]4 [D,D][C,C] | [B,,B,]2 B,2 F,2 | D,2 B,,2 B,,F, | B,2 z4 | B,,F, B,D F2 | %19
 F,,C, F,4 | z2 F,,C, F,A, | C2 z4 | B,,x F,C, D,2 | F,,C, F,A, [D,D][C,C] | [B,,B,]4 z2 | %25
 !arpeggio![F,,A,,C,F,]6 | B,,2 [C,,C,]2 [D,,D,]2 | [E,,E,]2 [E,,E,]2 [D,,D,]2 | %28
 [C,,C,]2 [C,,C,][D,,D,] [E,,E,]2 | [F,,F,]2 [F,,F,]4 | [B,,B,]2 [A,,A,]2 [G,,G,][F,,F,] | %31
 [E,,E,]2 z2 [C,,C,]2 | F,2 F,,4 | !arpeggio![B,,D,F,B,]6 | z6 | z6 | z6 | z6 | z6 |] %39

